!!! OTL: Berkowitz318
!!! Chapter: 1
!!! Section: III
!!! Page: 77
!!! Mode: 
!!! Encoder: DJB
**kern
*staff1
*I"Piano
=1-
*clefG2
*k[f#c#]
*D:
*M3/4
4dd\
4ccc#\
4ccc#\
=2
4ddd\
4gg\
4r
=3
4bb\
4cc#\
4r
=4
4aa\
4b\
4r
=5
4gg\
8a/L
8b/J
8cc#/L
8a/J
=6
4dd\
4ff#\
4dd\
=7
8ee\L
8ff#\J
8gg#\L
8ee\J
8ff#\L
8gg#\J
=8
2aa\
8gg\L
8ee\J
=9
4ff#\
4a/
4r
=10
!!linebreak:original
4ff#\
4g/
4r
=11
4ff#\
4a/
4r
=12
8dd\L
8bb\J
4aa\
4r
=13
4gg\
4a/
4gg\
=14
4ff#\
4dd\
4b\
=15
4a/
4ff#\
4ee\
=16
2.dd\
==
*-
